packages/core/src/svgs/forex.svg

<svg width="24" height="24" viewBox="0 0 24 24" fill="none" xmlns="http://www.w3.org/2000/svg">
<g clip-path="url(#clip0_31_10439)">
<path d="M0 0H24V24H0V0Z" fill="#F0F3FA"/>
<path d="M10.4358 5.48595L6.75867 7.16595C6.6625 7.2091 6.58067 7.27884 6.52282 7.36696C6.46498 7.45507 6.43353 7.55788 6.43217 7.66328C6.43082 7.76867 6.45963 7.87226 6.5152 7.96183C6.57077 8.0514 6.65078 8.12321 6.74581 8.16881L10.363 9.90881C10.8849 10.1591 11.4565 10.2884 12.0354 10.2869C12.6142 10.2854 13.1852 10.1532 13.7058 9.90024L17.2587 8.16452C17.683 7.95881 17.6744 7.3631 17.2458 7.16595L13.6372 5.49453C13.1356 5.26314 12.5899 5.14261 12.0375 5.14113C11.485 5.13965 10.9387 5.25726 10.4358 5.48595Z" fill="#2A313E"/>
<path d="M14.2456 8.88443L9.42847 6.60014L9.77132 6.42871L14.5713 8.713L14.2456 8.88443ZM12.1285 9.00014L11.957 8.713C12.4928 8.69585 13.1056 8.69585 13.5856 8.43443C13.7956 8.31443 13.9285 8.21157 14.0056 8.113C14.1599 7.90728 14.027 7.72728 13.8213 7.64157C13.5486 7.54865 13.2602 7.51077 12.9728 7.53014C12.6985 7.53871 12.4285 7.57728 12.2528 7.63728C11.6828 7.83443 11.1042 8.04443 10.4956 8.01014C10.1656 7.98443 9.6899 7.86443 9.5099 7.55157C9.40275 7.35871 9.49275 7.17871 9.63847 7.02871C10.187 6.48014 11.0056 6.42871 11.7299 6.42871L11.7599 6.65585C11.477 6.65585 10.817 6.643 10.4399 6.853C10.2685 6.95157 9.85275 7.183 9.98132 7.44871C10.097 7.68014 10.4699 7.74871 10.7013 7.74871C11.0646 7.7245 11.4217 7.64352 11.7599 7.50871C12.077 7.40157 12.4799 7.31157 12.8913 7.27728C13.3413 7.243 13.7999 7.27728 14.147 7.43157C14.4385 7.56014 14.6828 7.85157 14.4899 8.173C14.0613 8.84585 12.8185 8.98728 12.1285 9.00014Z" fill="#A9E3B0"/>
<path d="M5.14282 14.7169V9.66837C5.14282 9.05551 5.78568 8.64837 6.35139 8.90551L10.0757 10.6112C10.5208 10.8139 10.8984 11.1402 11.1635 11.5512C11.4287 11.9622 11.5702 12.4407 11.5714 12.9298V18.0041C11.5714 18.6212 10.9243 19.0284 10.3585 18.7669L6.62997 17.0269C6.1871 16.8233 5.81175 16.4972 5.54823 16.0871C5.28472 15.677 5.14404 15.2001 5.14282 14.7127V14.7169Z" fill="#2A313E"/>
<path d="M9.60847 16.5688C9.43704 16.6759 9.26561 16.7145 9.01704 16.7145C8.27561 16.7145 7.48275 16.0459 7.09704 15.1116C6.94798 14.7349 6.85835 14.3373 6.83132 13.9331L6.42847 13.7616L6.63418 13.3545L6.81418 13.4316C6.81847 13.2259 6.83561 13.0159 6.85704 12.8102L6.42847 12.6259L6.63418 12.2231L6.9299 12.3516L6.93847 12.2916C7.0799 11.5802 7.38847 11.1431 8.05275 11.1431C8.5799 11.1431 9.1499 11.5288 9.59132 12.1116C9.54847 12.2616 9.4799 12.4674 9.35561 12.6688C9.0899 12.1116 8.68704 11.7259 8.22418 11.7259C7.72704 11.7259 7.48275 12.0302 7.36275 12.5359L9.13275 13.2945L8.92704 13.7016L7.28132 12.9945C7.25561 13.1959 7.23847 13.4059 7.23847 13.6159L8.7599 14.2716L8.55418 14.6745L7.27275 14.1216C7.30704 14.3788 7.36704 14.6359 7.46561 14.8674C7.76561 15.6088 8.36561 16.1488 8.95275 16.1488C9.12847 16.1488 9.26561 16.1145 9.36847 16.0545C9.43275 16.1616 9.51847 16.3374 9.60847 16.5688Z" fill="#A9E3B0"/>
<path d="M18.857 14.7258V9.6858C18.857 9.06866 18.2142 8.66152 17.6485 8.91866L13.9242 10.6287C13.4797 10.8311 13.1026 11.1566 12.8375 11.5668C12.5724 11.977 12.4304 12.4546 12.4285 12.9429V18.0172C12.4285 18.6344 13.0756 19.0458 13.6413 18.7801L17.3699 17.0444C17.8128 16.8407 18.1881 16.5146 18.4516 16.1045C18.7151 15.6945 18.8558 15.2175 18.857 14.7301V14.7258Z" fill="#2A313E"/>
<path d="M15.8571 14.0742L16.9628 10.9971L16.4743 11.1642L15.6043 13.6371L14.6528 12.0085L14.1814 12.2828L15.4285 14.3442V14.5585L14.5714 14.9828V15.4114L15.4285 14.9828V15.5314L14.5714 15.9599V16.3885L15.4285 15.9599V16.7142L15.8571 16.4828V15.7499L16.7143 15.3214V14.8928L15.8571 15.3171V14.7728L16.7143 14.3442V13.9156L15.8571 14.3442V14.0742Z" fill="#A9E3B0"/>
</g>
<defs>
<clipPath id="clip0_31_10439">
<rect width="24" height="24" fill="white"/>
</clipPath>
</defs>
</svg>

<svg xmlns="http://www.w3.org/2000/svg" width="24" height="24" fill="none" viewBox="0 0 24 24"><g clip-path="url(#a)"><path fill="#F0F3FA" d="M0 0h24v24H0z"/><path fill="#2A313E" d="m10.436 5.486-3.677 1.68a.553.553 0 0 0-.013 1.003l3.617 1.74a3.84 3.84 0 0 0 3.343-.009l3.553-1.735a.55.55 0 0 0-.013-.999l-3.609-1.671a3.84 3.84 0 0 0-3.201-.01"/><path fill="#A9E3B0" d="M14.246 8.884 9.428 6.6l.343-.171 4.8 2.284zM12.129 9l-.172-.287c.536-.017 1.149-.017 1.629-.279.21-.12.342-.222.42-.321.154-.206.021-.386-.185-.471a2.2 2.2 0 0 0-.848-.112 2.7 2.7 0 0 0-.72.107c-.57.197-1.149.407-1.757.373-.33-.026-.806-.146-.986-.458-.107-.193-.017-.373.128-.523.549-.549 1.368-.6 2.092-.6l.03.227c-.283 0-.943-.013-1.32.197-.171.099-.587.33-.459.596.116.231.489.3.72.3.364-.024.72-.105 1.059-.24.317-.107.72-.197 1.131-.232.45-.034.909 0 1.256.155.291.128.536.42.343.741-.429.673-1.671.814-2.361.827"/><path fill="#2A313E" d="M5.143 14.717V9.668c0-.612.643-1.02 1.208-.762l3.725 1.705a2.55 2.55 0 0 1 1.495 2.319v5.074a.85.85 0 0 1-1.213.763l-3.728-1.74a2.55 2.55 0 0 1-1.487-2.314z"/><path fill="#A9E3B0" d="M9.608 16.569c-.171.107-.342.146-.591.146-.741 0-1.534-.67-1.92-1.603a3.9 3.9 0 0 1-.266-1.179l-.403-.171.206-.408.18.078c.004-.206.022-.416.043-.622l-.429-.184.206-.403.296.129.008-.06c.142-.712.45-1.149 1.115-1.149.527 0 1.097.386 1.538.969-.043.15-.111.355-.235.557-.266-.557-.669-.943-1.132-.943-.497 0-.741.304-.861.81l1.77.758-.206.408-1.646-.707a5 5 0 0 0-.043.62l1.522.657-.206.402-1.281-.552c.034.257.094.514.193.745.3.742.9 1.282 1.487 1.282a.8.8 0 0 0 .415-.095c.065.108.15.283.24.515"/><path fill="#2A313E" d="M18.857 14.726v-5.04a.85.85 0 0 0-1.209-.767l-3.724 1.71a2.55 2.55 0 0 0-1.495 2.314v5.074a.85.85 0 0 0 1.212.763l3.729-1.736a2.55 2.55 0 0 0 1.487-2.314z"/><path fill="#A9E3B0" d="m15.857 14.074 1.106-3.077-.489.167-.87 2.473-.951-1.629-.472.275 1.248 2.061v.215l-.858.424v.428l.857-.428v.548l-.857.429v.428l.857-.428v.754l.43-.231v-.733l.856-.429v-.428l-.857.424v-.544l.857-.429v-.428l-.857.428z"/></g><defs><clipPath id="a"><path fill="#fff" d="M0 0h24v24H0z"/></clipPath></defs></svg>
